X:1
T:Title
%%score { ( 1 3 ) | ( 2 4 ) }
L:1/8
Q:1/4=128
M:3/4
K:Eb
V:1 treble nm="Grand Piano"
V:3 treble 
V:2 bass 
V:4 bass 
V:1
 G4 B2 | B4 c2 | c4 G2 | G6 | [DB]4 [DF]2 | [DF]2 [EG]2 [FA]2 | G6 | E4 z2 | G4 B2 | B4 c2 | %10
w: Chas.~H.~Gabriel *||||||||||
 c4 G2 | G6 | B4 F2 | F2 B2 d2 | c6 | [B,DB]4 z2 | [DAB]4 [DAc]2 | d2 c2 [Ad]2 | [Ge]4 [FB]2 | %19
w: |||||||||
 [EB]6 | [Ec]4 [Ec]2 | c2 z2 z2 | [CFA]4 [CFA]2 | [CFA]6 | [FAd]4 [FAd]2 | d2 z2 z2 | [Ge]4 [AB]2 | %27
w: ||||||||
 B4 A2 | G4 G2 | [GB]2 A2 [B,EG]2 | [A,DF]6 | [G,E]6 | F6 | B6 | G2 _G2 =G2 | B4 z2 | c4 c2 | %37
w: ||||||||||
 e2 d2 c2 | B6 | G4 z2 | [FAd]4 [FAd]2 | d2 z2 z2 | [Ge]4 [AB]2 | B4 A2 | G4 G2 | %45
w: ||||||||
 [GB]2 A2 [B,EG]2 | [A,DF]6 | [G,B,E]6 |] %48
w: |||
V:2
 [E,B,E]4 [E,G,E]2 | [E,G,E]4 [E,G,E]2 | [E,G,E]4 [E,B,E]2 | [E,B,E]6 | z2 F,2 [B,,B,]2 | %5
 [B,,B,]4 [B,,B,]2 | [E,B,E]6 | [E,G,B,]4 z2 | [E,B,E]4 [E,G,E]2 | [E,G,E]4 [E,G,E]2 | %10
 [E,G,E]4 [E,B,E]2 | [E,B,E]6 | [F,B,D]4 [F,B,D]2 | [F,B,D]4 [F,B,F]2 | [F,=A,E]6 | B,,4 z2 | %16
 B,,4 B,,2 | [B,,B,]4 [B,,B,]2 | [E,B,]4 [E,A,]2 | [E,G,]6 | [C,G,]4 [C,G,]2 | %21
 z2[K:treble] _d2[K:bass] C,2 | F,4 F,2 | F,6 | B,,4 B,,2 | z2[K:treble] c2[K:bass] [B,,B,]2 | %26
 [E,B,]4 [F,D]2 | [G,E]4 [A,CE]2 | [B,E]4 [B,E]2 | z2 F2 B,,2 | B,,6 | E,6 | B,,4 B,,2 | %33
 [B,,F,]4 [B,,B,]2 | [E,B,E]2 [E,B,E]2 [E,B,E]2 | [E,G,E]4 z2 | [A,E]4 [A,E]2 | C2 z2 z2 | %38
 [E,G,E]6 | [E,B,E]4 z2 | B,,4 B,,2 | z2[K:treble] c2[K:bass] [B,,B,]2 | [E,B,]4 [F,D]2 | %43
 [G,E]4 [A,CE]2 | [B,E]4 [B,E]2 | z2 F2 B,,2 | B,,6 | E,6 |] %48
V:3
 x6 | x6 | x6 | x6 | B,2 z2 z2 | x6 | x6 | x6 | x6 | x6 | x6 | x6 | x6 | x6 | x6 | x6 | x6 | %17
 A4 z2 | x6 | x6 | x6 | =E4 [CEc]2 | x6 | x6 | x6 | [FA]4 [Ad]2 | x6 | x6 | x6 | x6 | x6 | x6 | %32
 [B,D]4 [B,D]2 | D4 D2 | x6 | x6 | x6 | x6 | x6 | x6 | x6 | [FA]4 [Ad]2 | x6 | x6 | x6 | x6 | x6 | %47
 x6 |] %48
V:4
 x6 | x6 | x6 | x6 | B,,4 z2 | x6 | x6 | x6 | x6 | x6 | x6 | x6 | x6 | x6 | x6 | x6 | x6 | x6 | %18
 x6 | x6 | x6 | [C,G,]4[K:treble][K:bass] z2 | x6 | x6 | x6 | B,,4[K:treble][K:bass] z2 | x6 | x6 | %28
 x6 | [B,,B,]4 z2 | x6 | x6 | x6 | x6 | x6 | x6 | x6 | [A,E]2- [A,B,E]2 [A,E]2 | x6 | x6 | x6 | %41
 B,,4[K:treble][K:bass] z2 | x6 | x6 | x6 | [B,,B,]4 z2 | x6 | x6 |] %48

